packages/icons/svgs/duotone/Source=file.svg

<svg width="24" height="24" viewBox="0 0 24 24" fill="none" xmlns="http://www.w3.org/2000/svg">
<path opacity="0.55" d="M15 1V7H21L15 1Z" fill="black" style="fill:black;fill-opacity:1;"/>
<path fill-rule="evenodd" clip-rule="evenodd" d="M3 0H2V1V23V24H3H21H22V23V7V6.58579L21.7071 6.29289L15.7071 0.292893L15.4142 0H15H3ZM4 22V2H14V7C14 7.55228 14.4477 8 15 8H20V22H4ZM18.5858 6L16 3.41421V6H18.5858Z" fill="black" style="fill:black;fill-opacity:1;"/>
</svg>

<svg xmlns="http://www.w3.org/2000/svg" width="24" height="24" viewBox="0 0 24 24"><path d="M15 1v6h6z" opacity=".55"/><path fill-rule="evenodd" d="M3 0H2v24h20V6.586l-.293-.293-6-6L15.414 0zm1 22V2h10v5a1 1 0 0 0 1 1h5v14zM18.586 6 16 3.414V6z" clip-rule="evenodd"/></svg>
